X: 12
T:Anstruther Lake 
R:
C:Bruce Osborne - Nov. 2004
Z:abc by bosborne@kos.net
M:3/4
L:1/8
K:Bb
DE|F2 FG FD|B,3 D FA|B3 d cB|G3 B AG|\
FD B,D FA|BA Bd cB|c3 B AG|F3 E DE|\
F2 FG FD|B,3 D FA|B3 d cB|G3 B AG|\
FD B,D FB|AF CE DC|B,4 B,A,|B,4||\
Bc|d2 dc dB|F3 G FE|DB, DF BF|d3 d cB|\
AF Ac fc|a3 f cA|BA Bc dg|f3 d Bc|\
d2 dc dB|F3 G FE|DB, DF BF|d3 d cB|\
AF Ac fc|a3 f cA|B3 A Bc|B4||
